src/ui/new-window.svg

<svg xmlns="http://www.w3.org/2000/svg" viewBox="0 0 16 16">
  <path d="M13 9.42a.58.58 0 0 0-.58.58v2.42H3.58V3.58H6a.58.58 0 0 0 0-1.16H3a.58.58 0 0 0-.58.58v10a.58.58 0 0 0 .58.58h10a.58.58 0 0 0 .58-.58v-3a.58.58 0 0 0-.58-.58Zm0-7H8.29a.58.58 0 0 0 0 1.16h3.32l-4 4a.59.59 0 0 0 0 .82.58.58 0 0 0 .82 0l4-4v3.31a.58.58 0 1 0 1.16 0V3a.58.58 0 0 0-.59-.58Z"/>
</svg>

<svg id="aedd56ee-007a-417c-90e8-6b381ff5f774" data-name="Icons" xmlns="http://www.w3.org/2000/svg" viewBox="0 0 16 16"><path d="M13,9.42a.58.58,0,0,0-.58.58v2.42H3.58V3.58H6A.58.58,0,0,0,6,2.42H3A.58.58,0,0,0,2.42,3V13a.58.58,0,0,0,.58.58H13a.58.58,0,0,0,.58-.58V10A.58.58,0,0,0,13,9.42Zm0-7H8.29a.58.58,0,0,0,0,1.16h3.32l-4,4a.59.59,0,0,0,0,.82.58.58,0,0,0,.82,0l4-4V7.71a.58.58,0,1,0,1.16,0V3A.58.58,0,0,0,13,2.42Z"/></svg>
